content/blog/create-new-github-repository-from-cli-with-gh-command/thumbnail.svg

<svg xmlns="http://www.w3.org/2000/svg" width="1200" height="630"><path fill="#282828" d="M0 0h1200v630H0z"/><path fill="#d4be98" d="m109 308.3-18.9 50.9H66.6l18.9-51.1L66.6 257h23.5l18.9 51.3Zm96.3 81.1q-10.3 0-17.6-2.8-7.3-2.8-11.7-7.6-4.3-4.9-5.6-10.9l19.6-2.6q.9 2.3 2.8 4.3 2 1.9 5.2 3.2 3.2 1.2 7.8 1.2 6.9 0 11.4-3.4 4.5-3.3 4.5-11.2v-14h-.9q-1.4 3.2-4.1 6.1-2.8 2.8-7.2 4.6-4.4 1.8-10.4 1.8-8.6 0-15.7-4-7-4-11.2-12.3-4.1-8.3-4.1-21 0-12.9 4.2-21.6 4.2-8.7 11.3-13.1 7-4.3 15.4-4.3 6.4 0 10.7 2.2 4.4 2.1 7 5.3 2.7 3.2 4.1 6.3h.8v-12.8h21.1v77.1q0 9.8-4.8 16.3-4.8 6.6-13.2 9.9-8.4 3.3-19.4 3.3Zm.5-47.2q5.1 0 8.6-2.6 3.6-2.6 5.5-7.4 1.9-4.8 1.9-11.5t-1.9-11.6q-1.9-5-5.4-7.7-3.6-2.7-8.7-2.7-5.3 0-8.8 2.8-3.6 2.8-5.5 7.8-1.8 4.9-1.8 11.4 0 6.7 1.9 11.4 1.8 4.8 5.4 7.5 3.5 2.6 8.8 2.6Zm74.9-27.2v44.2h-21.1V257.4h20.5v38.9h.9q2.6-6.8 8.4-10.6 5.8-3.9 14.5-3.9 7.9 0 13.9 3.5 5.9 3.4 9.2 9.9 3.3 6.4 3.3 15.3v48.7h-21.2v-44.9q0-7-3.6-11-3.6-3.9-10-3.9-4.4 0-7.7 1.8-3.3 1.9-5.1 5.4-1.9 3.5-2 8.4Zm119.9 44.2h-21.2v-76.4H400v13.3h.8q2-7.1 7-10.7 4.9-3.7 11.3-3.7 1.6 0 3.4.2 1.9.2 3.3.6v18.7q-1.5-.4-4.2-.7-2.6-.4-4.8-.4-4.7 0-8.3 2-3.7 2-5.8 5.6-2.1 3.6-2.1 8.3v43.2Zm67.3 1.5q-11.8 0-20.3-4.8t-13-13.7q-4.6-8.8-4.6-20.9 0-11.7 4.6-20.6 4.5-8.9 12.9-13.9 8.3-5 19.5-5 7.6 0 14.1 2.4 6.6 2.4 11.5 7.3 4.9 4.8 7.6 12.1 2.7 7.2 2.7 17v5.8h-64.5v-13.1H483q0-4.6-2-8.1-2-3.6-5.5-5.6-3.5-2-8.1-2-4.9 0-8.6 2.2-3.7 2.2-5.7 5.9-2.1 3.8-2.2 8.3v12.5q0 5.6 2.1 9.7 2.1 4.2 6 6.4 3.9 2.3 9.2 2.3 3.5 0 6.5-1 2.9-1 5-3t3.2-4.9l19.6 1.3q-1.5 7.1-6.1 12.3-4.6 5.2-11.9 8.2-7.2 2.9-16.6 2.9Zm70 27.1h-21.2v-105h20.9v12.8h1q1.4-3.1 4-6.3 2.7-3.2 7-5.3 4.3-2.2 10.7-2.2 8.3 0 15.4 4.4 7.1 4.3 11.3 13 4.2 8.8 4.2 21.9 0 12.8-4.1 21.5-4.1 8.8-11.1 13.3-7.1 4.5-15.8 4.5-6.1 0-10.4-2-4.3-2.1-7.1-5.2-2.7-3.1-4.1-6.3h-.7v40.9Zm-.4-66.8q0 6.8 1.9 11.9 1.9 5 5.4 7.8 3.6 2.9 8.7 2.9 5.2 0 8.8-2.9 3.6-2.9 5.4-8 1.9-5.1 1.9-11.7t-1.9-11.6q-1.8-5.1-5.4-7.9-3.5-2.8-8.8-2.8-5.1 0-8.7 2.7-3.5 2.7-5.4 7.8-1.9 5-1.9 11.8Zm102.3 39.7q-11.6 0-20-5-8.5-4.9-13-13.8-4.6-8.9-4.6-20.6 0-11.8 4.6-20.7 4.5-8.9 13-13.8 8.4-5 20-5t20 5q8.4 4.9 13 13.8t4.6 20.7q0 11.7-4.6 20.6-4.6 8.9-13 13.8-8.4 5-20 5Zm.1-16.4q5.3 0 8.8-3.1 3.5-3 5.3-8.2 1.8-5.2 1.8-11.9 0-6.6-1.8-11.8-1.8-5.3-5.3-8.3-3.5-3-8.8-3-5.3 0-8.9 3-3.6 3-5.5 8.3-1.8 5.2-1.8 11.8 0 6.7 1.8 11.9 1.9 5.2 5.5 8.2 3.6 3.1 8.9 3.1Zm118.3 16.4q-11.8 0-20.2-5-8.4-5-12.9-13.9t-4.5-20.5q0-11.7 4.5-20.6 4.6-8.9 13-13.9t20-5q10 0 17.5 3.6 7.5 3.7 11.8 10.2 4.4 6.6 4.9 15.4h-20q-.9-5.7-4.5-9.2-3.6-3.5-9.4-3.5-4.9 0-8.6 2.7-3.6 2.6-5.7 7.7-2 5.1-2 12.3 0 7.3 2 12.4 2 5.1 5.7 7.8t8.6 2.7q3.6 0 6.5-1.5 3-1.5 4.9-4.3 1.9-2.9 2.5-6.9h20q-.5 8.7-4.8 15.4-4.2 6.6-11.7 10.3-7.4 3.8-17.6 3.8Zm68.9-1.5h-21.2v-76.4h20.5v13.3h.8q2.1-7.1 7-10.7 4.9-3.7 11.4-3.7 1.6 0 3.4.2 1.8.2 3.2.6v18.7q-1.5-.4-4.1-.7-2.6-.4-4.8-.4-4.7 0-8.4 2-3.6 2-5.7 5.6-2.1 3.6-2.1 8.3v43.2Zm67.2 1.5q-11.8 0-20.2-4.8-8.5-4.8-13.1-13.7-4.6-8.8-4.6-20.9 0-11.7 4.6-20.6 4.6-8.9 12.9-13.9 8.4-5 19.6-5 7.5 0 14.1 2.4 6.5 2.4 11.4 7.3 4.9 4.8 7.6 12.1 2.8 7.2 2.8 17v5.8h-64.5v-13.1h44.5q0-4.6-1.9-8.1-2-3.6-5.5-5.6-3.5-2-8.2-2-4.8 0-8.5 2.2t-5.8 5.9q-2.1 3.8-2.1 8.3v12.5q0 5.6 2.1 9.7 2.1 4.2 6 6.4 3.9 2.3 9.2 2.3 3.5 0 6.4-1 3-1 5.1-3 2.1-2 3.1-4.9l19.6 1.3q-1.5 7.1-6.1 12.3-4.6 5.2-11.8 8.2-7.2 2.9-16.7 2.9Zm70.7-.1q-7.3 0-13-2.6-5.8-2.5-9.1-7.6-3.3-5-3.3-12.6 0-6.3 2.4-10.6 2.3-4.4 6.3-7 4.1-2.6 9.2-4 5.1-1.3 10.8-1.9 6.7-.7 10.7-1.3 4.1-.6 6-1.9 1.8-1.2 1.8-3.6v-.3q0-4.8-3-7.3-2.9-2.6-8.3-2.6-5.7 0-9.1 2.5-3.4 2.5-4.5 6.3l-19.6-1.6q1.5-7 5.9-12.1 4.3-5.1 11.3-7.8 6.9-2.8 16.1-2.8 6.3 0 12.2 1.5 5.8 1.5 10.4 4.6 4.5 3.2 7.1 8.1 2.7 4.9 2.7 11.7v51.5h-20.1v-10.6h-.6q-1.8 3.6-4.9 6.3-3.1 2.7-7.4 4.2-4.4 1.5-10 1.5Zm6-14.6q4.7 0 8.3-1.9 3.6-1.8 5.6-5 2.1-3.2 2.1-7.2v-8.1q-1 .6-2.8 1.1-1.7.6-3.8 1-2.1.4-4.3.7-2.1.4-3.9.6-3.7.5-6.5 1.7t-4.3 3.2q-1.5 2.1-1.5 5 0 4.4 3.1 6.6 3.2 2.3 8 2.3Zm48.1-63.2h46v15.9h-46v-15.9Zm10.4 55.7v-74h21.2v71.2q0 2.9.9 4.6.9 1.6 2.5 2.2 1.6.7 3.7.7 1.5 0 3-.3t2.3-.4l3.3 15.7q-1.5.5-4.4 1.2-2.9.7-7 .8-7.7.3-13.4-2-5.8-2.4-9-7.3-3.1-4.9-3.1-12.4Zm83.3 22.2q-11.7 0-20.2-4.8t-13.1-13.7q-4.5-8.8-4.5-20.9 0-11.7 4.5-20.6 4.6-8.9 12.9-13.9 8.4-5 19.6-5 7.5 0 14.1 2.4 6.5 2.4 11.4 7.3 4.9 4.8 7.6 12.1 2.8 7.2 2.8 17v5.8h-64.5v-13.1h44.5q0-4.6-1.9-8.1-2-3.6-5.5-5.6-3.5-2-8.2-2-4.8 0-8.5 2.2t-5.8 5.9q-2.1 3.8-2.1 8.3v12.5q0 5.6 2.1 9.7 2.1 4.2 6 6.4 3.9 2.3 9.2 2.3 3.5 0 6.4-1 3-1 5.1-3 2.1-2 3.1-4.9l19.6 1.3q-1.5 7.1-6.1 12.3-4.6 5.2-11.8 8.2-7.2 2.9-16.7 2.9Z"/></svg>

<svg width="1200" height="630" viewBox="0 0 1200 630" xmlns="http://www.w3.org/2000/svg"><rect x="0" y="0" width="1200" height="630" fill="#282828"/><path fill="#d4be98" d="M109 308.3L90.1 359.2L66.6 359.2L85.5 308.1L66.6 257.0L90.1 257.0L109 308.3Z M205.3 389.4L205.3 389.4Q195.0 389.4 187.7 386.6Q180.4 383.8 176.0 379.0Q171.7 374.1 170.4 368.1L170.4 368.1L190.0 365.5Q190.9 367.8 192.8 369.8Q194.8 371.7 198.0 373.0Q201.2 374.2 205.8 374.2L205.8 374.2Q212.7 374.2 217.2 370.8Q221.7 367.5 221.7 359.6L221.7 359.6L221.7 345.6L220.8 345.6Q219.4 348.8 216.7 351.7Q213.9 354.5 209.5 356.3Q205.1 358.1 199.1 358.1L199.1 358.1Q190.5 358.1 183.4 354.1Q176.4 350.1 172.2 341.8Q168.1 333.5 168.1 320.8L168.1 320.8Q168.1 307.9 172.3 299.2Q176.5 290.5 183.6 286.1Q190.6 281.8 199.0 281.8L199.0 281.8Q205.4 281.8 209.7 284.0Q214.1 286.1 216.7 289.3Q219.4 292.5 220.8 295.6L220.8 295.6L221.6 295.6L221.6 282.8L242.7 282.8L242.7 359.9Q242.7 369.7 237.9 376.2Q233.1 382.8 224.7 386.1Q216.3 389.4 205.3 389.4ZM205.8 342.2L205.8 342.2Q210.9 342.2 214.4 339.6Q218.0 337.0 219.9 332.2Q221.8 327.4 221.8 320.7L221.8 320.7Q221.8 314.0 219.9 309.1Q218.0 304.1 214.5 301.4Q210.9 298.7 205.8 298.7L205.8 298.7Q200.5 298.7 197.0 301.5Q193.4 304.3 191.5 309.3Q189.7 314.2 189.7 320.7L189.7 320.7Q189.7 327.4 191.6 332.1Q193.4 336.9 197.0 339.6Q200.5 342.2 205.8 342.2ZM280.7 315.0L280.7 315.0L280.7 359.2L259.6 359.2L259.6 257.4L280.1 257.4L280.1 296.3L281.0 296.3Q283.6 289.5 289.4 285.7Q295.2 281.8 303.9 281.8L303.9 281.8Q311.8 281.8 317.8 285.3Q323.7 288.7 327.0 295.2Q330.3 301.6 330.3 310.5L330.3 310.5L330.3 359.2L309.1 359.2L309.1 314.3Q309.1 307.3 305.5 303.3Q301.9 299.4 295.5 299.4L295.5 299.4Q291.1 299.4 287.8 301.2Q284.5 303.1 282.7 306.6Q280.8 310.1 280.7 315.0Z M400.6 359.2L379.4 359.2L379.4 282.8L400.0 282.8L400.0 296.1L400.8 296.1Q402.8 289.0 407.8 285.4Q412.7 281.7 419.1 281.7L419.1 281.7Q420.7 281.7 422.5 281.9Q424.4 282.1 425.8 282.5L425.8 282.5L425.8 301.2Q424.3 300.8 421.6 300.5Q419.0 300.1 416.8 300.1L416.8 300.1Q412.1 300.1 408.5 302.1Q404.8 304.1 402.7 307.7Q400.6 311.3 400.6 316.0L400.6 316.0L400.6 359.2ZM467.9 360.7L467.9 360.7Q456.1 360.7 447.6 355.9Q439.1 351.1 434.6 342.2Q430.0 333.4 430.0 321.3L430.0 321.3Q430.0 309.6 434.6 300.7Q439.1 291.8 447.5 286.8Q455.8 281.8 467.0 281.8L467.0 281.8Q474.6 281.8 481.1 284.2Q487.7 286.6 492.6 291.5Q497.5 296.3 500.2 303.6Q502.9 310.8 502.9 320.6L502.9 320.6L502.9 326.4L438.4 326.4L438.4 313.3L483.0 313.3Q483.0 308.7 481.0 305.2Q479.0 301.6 475.5 299.6Q472.0 297.6 467.4 297.6L467.4 297.6Q462.5 297.6 458.8 299.8Q455.1 302.0 453.1 305.7Q451.0 309.5 450.9 314.0L450.9 314.0L450.9 326.5Q450.9 332.1 453.0 336.2Q455.1 340.4 459.0 342.6Q462.9 344.9 468.2 344.9L468.2 344.9Q471.7 344.9 474.7 343.9Q477.6 342.9 479.7 340.9Q481.8 338.9 482.9 336.0L482.9 336.0L502.5 337.3Q501.0 344.4 496.4 349.6Q491.8 354.8 484.5 357.8Q477.3 360.7 467.9 360.7ZM537.9 387.8L516.7 387.8L516.7 282.8L537.6 282.8L537.6 295.6L538.6 295.6Q540.0 292.5 542.6 289.3Q545.3 286.1 549.6 284.0Q553.9 281.8 560.3 281.8L560.3 281.8Q568.6 281.8 575.7 286.2Q582.8 290.5 587.0 299.2Q591.2 308.0 591.2 321.1L591.2 321.1Q591.2 333.9 587.1 342.6Q583.0 351.4 576.0 355.9Q568.9 360.4 560.2 360.4L560.2 360.4Q554.1 360.4 549.8 358.4Q545.5 356.3 542.7 353.2Q540.0 350.1 538.6 346.9L538.6 346.9L537.9 346.9L537.9 387.8ZM537.5 321.0L537.5 321.0Q537.5 327.8 539.4 332.9Q541.3 337.9 544.8 340.7Q548.4 343.6 553.5 343.6L553.5 343.6Q558.7 343.6 562.3 340.7Q565.9 337.8 567.7 332.7Q569.6 327.6 569.6 321.0L569.6 321.0Q569.6 314.4 567.7 309.4Q565.9 304.3 562.3 301.5Q558.8 298.7 553.5 298.7L553.5 298.7Q548.4 298.7 544.8 301.4Q541.3 304.1 539.4 309.2Q537.5 314.2 537.5 321.0ZM639.8 360.7L639.8 360.7Q628.2 360.7 619.8 355.7Q611.3 350.8 606.8 341.9Q602.2 333.0 602.2 321.3L602.2 321.3Q602.2 309.5 606.8 300.6Q611.3 291.7 619.8 286.8Q628.2 281.8 639.8 281.8L639.8 281.8Q651.4 281.8 659.8 286.8Q668.2 291.7 672.8 300.6Q677.4 309.5 677.4 321.3L677.4 321.3Q677.4 333.0 672.8 341.9Q668.2 350.8 659.8 355.7Q651.4 360.7 639.8 360.7ZM639.9 344.3L639.9 344.3Q645.2 344.3 648.7 341.2Q652.2 338.2 654.0 333.0Q655.8 327.8 655.8 321.1L655.8 321.1Q655.8 314.5 654.0 309.3Q652.2 304.0 648.7 301.0Q645.2 298.0 639.9 298.0L639.9 298.0Q634.6 298.0 631.0 301.0Q627.4 304.0 625.5 309.3Q623.7 314.5 623.7 321.1L623.7 321.1Q623.7 327.8 625.5 333.0Q627.4 338.2 631.0 341.2Q634.6 344.3 639.9 344.3Z M758.2 360.7L758.2 360.7Q746.4 360.7 738.0 355.7Q729.6 350.7 725.1 341.8Q720.6 332.9 720.6 321.3L720.6 321.3Q720.6 309.6 725.1 300.7Q729.7 291.8 738.1 286.8Q746.5 281.8 758.1 281.8L758.1 281.8Q768.1 281.8 775.6 285.4Q783.1 289.1 787.4 295.6Q791.8 302.2 792.3 311.0L792.3 311.0L772.3 311.0Q771.4 305.3 767.8 301.8Q764.2 298.3 758.4 298.3L758.4 298.3Q753.5 298.3 749.8 301.0Q746.2 303.6 744.1 308.7Q742.1 313.8 742.1 321.0L742.1 321.0Q742.1 328.3 744.1 333.4Q746.1 338.5 749.8 341.2Q753.5 343.9 758.4 343.9L758.4 343.9Q762.0 343.9 764.9 342.4Q767.9 340.9 769.8 338.1Q771.7 335.2 772.3 331.2L772.3 331.2L792.3 331.2Q791.8 339.9 787.5 346.6Q783.3 353.2 775.8 356.9Q768.4 360.7 758.2 360.7ZM827.1 359.2L805.9 359.2L805.9 282.8L826.4 282.8L826.4 296.1L827.2 296.1Q829.3 289.0 834.2 285.4Q839.1 281.7 845.6 281.7L845.6 281.7Q847.2 281.7 849.0 281.9Q850.8 282.1 852.2 282.5L852.2 282.5L852.2 301.2Q850.7 300.8 848.1 300.5Q845.5 300.1 843.3 300.1L843.3 300.1Q838.6 300.1 834.9 302.1Q831.3 304.1 829.2 307.7Q827.1 311.3 827.1 316.0L827.1 316.0L827.1 359.2ZM894.3 360.7L894.3 360.7Q882.5 360.7 874.1 355.9Q865.6 351.1 861.0 342.2Q856.4 333.4 856.4 321.3L856.4 321.3Q856.4 309.6 861.0 300.7Q865.6 291.8 873.9 286.8Q882.3 281.8 893.5 281.8L893.5 281.8Q901.0 281.8 907.6 284.2Q914.1 286.6 919.0 291.5Q923.9 296.3 926.6 303.6Q929.4 310.8 929.4 320.6L929.4 320.6L929.4 326.4L864.9 326.4L864.9 313.3L909.4 313.3Q909.4 308.7 907.5 305.2Q905.5 301.6 902.0 299.6Q898.5 297.6 893.8 297.6L893.8 297.6Q889.0 297.6 885.3 299.8Q881.6 302.0 879.5 305.7Q877.4 309.5 877.4 314.0L877.4 314.0L877.4 326.5Q877.4 332.1 879.5 336.2Q881.6 340.4 885.5 342.6Q889.4 344.9 894.7 344.9L894.7 344.9Q898.2 344.9 901.1 343.9Q904.1 342.9 906.2 340.9Q908.3 338.9 909.3 336.0L909.3 336.0L928.9 337.3Q927.4 344.4 922.8 349.6Q918.2 354.8 911.0 357.8Q903.8 360.7 894.3 360.7ZM965.0 360.6L965.0 360.6Q957.7 360.6 952.0 358.0Q946.2 355.5 942.9 350.4Q939.6 345.4 939.6 337.8L939.6 337.8Q939.6 331.5 942.0 327.2Q944.3 322.8 948.3 320.2Q952.4 317.6 957.5 316.2Q962.6 314.9 968.3 314.3L968.3 314.3Q975.0 313.6 979.0 313.0Q983.1 312.4 985.0 311.1Q986.8 309.9 986.8 307.5L986.8 307.5L986.8 307.2Q986.8 302.4 983.8 299.9Q980.9 297.3 975.5 297.3L975.5 297.3Q969.8 297.3 966.4 299.8Q963.0 302.3 961.9 306.1L961.9 306.1L942.3 304.5Q943.8 297.5 948.2 292.4Q952.5 287.3 959.5 284.6Q966.4 281.8 975.6 281.8L975.6 281.8Q981.9 281.8 987.8 283.3Q993.6 284.8 998.2 287.9Q1002.7 291.1 1005.3 296.0Q1008.0 300.9 1008.0 307.7L1008.0 307.7L1008.0 359.2L987.9 359.2L987.9 348.6L987.3 348.6Q985.5 352.2 982.4 354.9Q979.3 357.6 975.0 359.1Q970.6 360.6 965.0 360.6ZM971.0 346.0L971.0 346.0Q975.7 346.0 979.3 344.1Q982.9 342.3 984.9 339.1Q987.0 335.9 987.0 331.9L987.0 331.9L987.0 323.8Q986.0 324.4 984.2 324.9Q982.5 325.5 980.4 325.9Q978.3 326.3 976.1 326.6Q974.0 327.0 972.2 327.2L972.2 327.2Q968.5 327.7 965.7 328.9Q962.9 330.1 961.4 332.1Q959.9 334.2 959.9 337.1L959.9 337.1Q959.9 341.5 963.0 343.7Q966.2 346.0 971.0 346.0ZM1019.1 282.8L1065.1 282.8L1065.1 298.7L1019.1 298.7L1019.1 282.8ZM1029.5 338.5L1029.5 264.5L1050.7 264.5L1050.7 335.7Q1050.7 338.6 1051.6 340.3Q1052.5 341.9 1054.1 342.5Q1055.7 343.2 1057.8 343.2L1057.8 343.2Q1059.3 343.2 1060.8 342.9Q1062.3 342.6 1063.1 342.5L1063.1 342.5L1066.4 358.2Q1064.9 358.7 1062.0 359.4Q1059.1 360.1 1055.0 360.2L1055.0 360.2Q1047.3 360.5 1041.6 358.2Q1035.8 355.8 1032.6 350.9Q1029.5 346.0 1029.5 338.5L1029.5 338.5ZM1112.8 360.7L1112.8 360.7Q1101.1 360.7 1092.6 355.9Q1084.1 351.1 1079.5 342.2Q1075.0 333.4 1075.0 321.3L1075.0 321.3Q1075.0 309.6 1079.5 300.7Q1084.1 291.8 1092.4 286.8Q1100.8 281.8 1112.0 281.8L1112.0 281.8Q1119.5 281.8 1126.1 284.2Q1132.6 286.6 1137.5 291.5Q1142.4 296.3 1145.1 303.6Q1147.9 310.8 1147.9 320.6L1147.9 320.6L1147.9 326.4L1083.4 326.4L1083.4 313.3L1127.9 313.3Q1127.9 308.7 1126.0 305.2Q1124.0 301.6 1120.5 299.6Q1117.0 297.6 1112.3 297.6L1112.3 297.6Q1107.5 297.6 1103.8 299.8Q1100.1 302.0 1098.0 305.7Q1095.9 309.5 1095.9 314.0L1095.9 314.0L1095.9 326.5Q1095.9 332.1 1098.0 336.2Q1100.1 340.4 1104.0 342.6Q1107.9 344.9 1113.2 344.9L1113.2 344.9Q1116.7 344.9 1119.6 343.9Q1122.6 342.9 1124.7 340.9Q1126.8 338.9 1127.8 336.0L1127.8 336.0L1147.4 337.3Q1145.9 344.4 1141.3 349.6Q1136.7 354.8 1129.5 357.8Q1122.3 360.7 1112.8 360.7Z "/></svg>
